twitch.svg

<svg height="2500" viewBox="0 0 300 300" width="2500" xmlns="http://www.w3.org/2000/svg"><g fill="#65459b"><path clip-rule="evenodd" d="m215.2 260.8h-58.7l-39.1 39.2h-39.1v-39.2h-71.7v-208.6l19.5-52.2h267.3v182.6zm52.2-91.2v-143.5h-215.2v189.1h58.7v39.1l39.1-39.1h71.7z" fill-rule="evenodd"/><path d="m195.6 78.3v78.3h26.1v-78.3zm-71.7 78.2h26.1v-78.2h-26.1z"/></g></svg>

<svg xmlns="http://www.w3.org/2000/svg" width="2500" height="2500" viewBox="0 0 300 300"><path fill-rule="evenodd" clip-rule="evenodd" fill="#65459B" d="M215.2 260.8h-58.7L117.4 300H78.3v-39.2H6.6V52.2L26.1 0h267.3v182.6l-78.2 78.2zm52.2-91.2V26.1H52.2v189.1h58.7v39.1l39.1-39.1h71.7l45.7-45.6z"/><path fill="#65459B" d="M195.6 78.3v78.3h26.1V78.3h-26.1zm-71.7 78.2H150V78.3h-26.1v78.2z"/></svg>
